source/assets/images/logos/logo-bivee-red-reverse.svg

<svg xmlns="http://www.w3.org/2000/svg" width="200" height="62" viewBox="0 0 200 62">
  <g fill="none" fill-rule="evenodd">
    <path fill="#FFF" d="M162.633647,50.4075661 C159.543306,52.9158339 155.174065,54.3877791 150.568238,54.3877791 C141.612142,54.3877791 134.270183,48.8044871 134.270183,38.6187864 C134.270183,28.6779857 141.277352,22.3978517 150.114485,22.3978517 C159.267438,22.3978517 165.133194,29.1128169 165.133194,37.675761 C165.133194,38.5625343 165.05396,39.4490936 164.99526,39.8826415 L139.250529,39.8826415 C139.761643,46.276777 144.130884,50.25699 150.803261,50.25699 C154.287093,50.25699 157.554873,49.1621052 160.3102,47.3323066 L162.633647,50.4075661 Z M197.136278,50.4075661 L194.812831,47.3323066 C192.057504,49.1621052 188.791063,50.25699 185.305892,50.25699 C178.633738,50.25699 174.264274,46.276777 173.75316,39.8826415 L199.497891,39.8826415 C199.556591,39.4490936 199.636048,38.5625343 199.636048,37.675761 C199.636048,29.1128169 193.770069,22.3978517 184.617116,22.3978517 C175.779983,22.3978517 168.772814,28.6779857 168.772814,38.6187864 C168.772814,48.8044871 176.114773,54.3877791 185.070869,54.3877791 C189.676696,54.3877791 194.04616,52.9158125 197.136278,50.4075661 Z M72.312934,10.0433423 C80.1470351,10.0433423 86.0511797,14.0982017 86.0511797,21.3226445 C86.0511797,26.1134871 83.4529811,29.1874632 80.2849688,30.6962183 C85.3624037,31.9038212 89.2997649,35.7334581 89.2997649,41.7306204 C89.2997649,49.0309928 83.4735149,53.764514 75.2651179,53.764514 L57.4718879,53.764514 L57.4718879,10.0433423 L72.312934,10.0433423 Z M93.7444455,53.764514 L98.6453341,53.764514 L98.6453341,23.0200474 L93.7444455,23.0200474 L93.7444455,53.764514 Z M118.366958,48.5399096 L128.720024,23.0200474 L133.75907,23.0200474 L120.7683,53.764514 L115.65136,53.764514 L103.132422,23.0200474 L108.466529,23.0200474 L118.366958,48.5399096 Z M74.0444712,49.4645407 C79.8312159,49.4645193 84.1622909,47.0311331 84.1622909,41.5041147 C84.1622909,35.922106 79.7327875,33.3747183 73.3762291,33.3747183 L62.471205,33.3747183 L62.471205,49.4645407 L74.0444712,49.4645407 Z M160.232305,36.2232581 C159.976748,31.1310494 156.413683,26.5288546 150.153991,26.5288546 C144.229312,26.5288546 139.9585,30.6399661 139.348957,36.2232581 L160.232305,36.2232581 Z M194.734936,36.2232581 C194.479379,31.1310494 190.916314,26.5288546 184.656845,26.5288546 C178.732167,26.5288546 174.461131,30.6399661 173.851588,36.2232581 L194.734936,36.2232581 Z M71.821015,29.225535 C76.879032,29.225535 81.0121341,26.8116125 81.0121341,21.6056162 C81.0121341,16.4374779 76.8995658,14.3247075 71.1717443,14.3247075 L62.471205,14.3247075 L62.471205,29.225535 L71.821015,29.225535 Z M96.2044872,16.2670104 C94.2950645,16.2670104 92.7398504,14.7779329 92.7398504,12.9483481 C92.7398504,11.1185495 94.2950645,9.62818873 96.2044872,9.62818873 C98.1136866,9.62818873 99.6677848,11.1185495 99.6677848,12.9483481 C99.6677848,14.7779329 98.1136866,16.2670104 96.2044872,16.2670104 Z"/>
    <path fill="#EF4658" d="M36.115787,52.2275786 C36.115787,53.9766655 35.4085077,55.6188877 34.1191026,56.8550936 L29.2992521,61.4769022 C2.51641388,35.7927329 28.7533738,60.962119 1.99668443,35.2962793 C0.70836131,34.060938 0,32.4195804 0,30.6755082 C0,29.1842452 0.459677439,27.6843362 1.69263729,26.4721662 L6.88596443,21.4915484 C33.7739387,47.2796426 7.35538003,21.9523805 34.1191026,47.60577 C35.4085077,48.8411112 36.115787,50.4833335 36.115787,52.2275786 Z M33.8161374,14.1567962 L29.8238506,17.9906079 L20.1828873,8.7471636 L28.9961066,0.2915433 L33.8161374,4.91231439 C36.4750171,7.46271304 36.4750171,11.6072622 33.8161374,14.1567962 Z M16.6834598,52.8085901 L7.64445925,61.4769022 L2.82442842,56.8550936 C0.164647117,54.306597 0.164647117,50.155304 2.81847732,47.6125139 L7.04448011,43.5603041 L16.6834598,52.8085901 Z M36.7920484,30.8024315 C36.7920484,32.5534205 36.0836871,34.1937407 34.795364,35.4299465 L29.9755135,40.0517551 C3.12937725,14.308793 29.3383851,39.4456701 2.67294586,13.8711322 C0.0140662378,11.3205606 0.0140662378,7.17220726 2.67294586,4.62751497 L7.49297669,0 C8.00657471,0.493513984 34.364901,25.7678626 34.795364,26.1797583 C36.0836871,27.4159642 36.7920484,29.0581864 36.7920484,30.8024315 Z"/>
  </g>
</svg>

<svg xmlns="http://www.w3.org/2000/svg" width="200" height="62"><g fill="none" fill-rule="evenodd"><path fill="#FFF" d="M162.634 50.408c-3.09 2.508-7.46 3.98-12.066 3.98-8.956 0-16.298-5.584-16.298-15.77 0-9.94 7.007-16.22 15.844-16.22 9.153 0 15.02 6.715 15.02 15.278 0 .887-.08 1.773-.139 2.207h-25.744c.51 6.394 4.88 10.374 11.552 10.374 3.484 0 6.752-1.095 9.507-2.925l2.324 3.076zm34.502 0l-2.323-3.076c-2.755 1.83-6.022 2.925-9.507 2.925-6.672 0-11.042-3.98-11.553-10.374h25.745c.059-.434.138-1.32.138-2.207 0-8.563-5.866-15.278-15.019-15.278-8.837 0-15.844 6.28-15.844 16.22 0 10.186 7.342 15.77 16.298 15.77 4.606 0 8.975-1.472 12.065-3.98zM72.313 10.043c7.834 0 13.738 4.055 13.738 11.28 0 4.79-2.598 7.864-5.766 9.373 5.077 1.208 9.015 5.037 9.015 11.035 0 7.3-5.826 12.034-14.035 12.034H57.472V10.043h14.84zm21.431 43.722h4.901V23.02h-4.9v30.745zm24.623-5.225l10.353-25.52h5.04l-12.992 30.745h-5.117L103.132 23.02h5.335l9.9 25.52zm-44.323.925c5.787 0 10.118-2.434 10.118-7.96 0-5.583-4.43-8.13-10.786-8.13H62.471v16.09h11.573zm86.188-13.242c-.255-5.092-3.818-9.694-10.078-9.694-5.925 0-10.196 4.111-10.805 9.694h20.883zm34.503 0c-.256-5.092-3.819-9.694-10.078-9.694-5.925 0-10.196 4.111-10.805 9.694h20.883zM71.82 29.226c5.058 0 9.191-2.414 9.191-7.62 0-5.169-4.112-7.281-9.84-7.281h-8.7v14.9h9.349zm24.383-12.959c-1.909 0-3.464-1.49-3.464-3.319 0-1.83 1.555-3.32 3.464-3.32 1.91 0 3.464 1.49 3.464 3.32 0 1.83-1.554 3.319-3.464 3.319z"/><path fill="#EF4658" d="M36.116 52.228c0 1.749-.707 3.39-1.997 4.627l-4.82 4.622c-26.783-25.684-.546-.515-27.302-26.18C.708 34.06 0 32.42 0 30.675c0-1.492.46-2.992 1.693-4.204l5.193-4.98c26.888 25.788.47.46 27.233 26.114 1.29 1.235 1.997 2.877 1.997 4.622zm-2.3-38.071l-3.992 3.834-9.641-9.244L28.996.292l4.82 4.62c2.659 2.55 2.659 6.695 0 9.245zM16.683 52.809l-9.039 8.668-4.82-4.622c-2.66-2.548-2.66-6.7-.006-9.242l4.226-4.053 9.64 9.249zm20.109-22.007c0 1.751-.708 3.392-1.997 4.628l-4.82 4.622c-26.846-25.743-.637-.606-27.302-26.18-2.659-2.551-2.659-6.7 0-9.244L7.493 0l27.302 26.18c1.289 1.236 1.997 2.878 1.997 4.622z"/></g></svg>
